X:425
T: Scartaglen
S: "Johnny O'Leary of Sliabh Luachra" (#85)
Z: B.Black
L: 1/8
M: 12/8
Q: 350
R: slide
K: G
A|B2d cBA G2E D2G|EFG A2B c3 B2A|
B2B cBA G2E D2G|EFG AGF G3 G3 :|
E|D2B BAB d2B BAB|DAG A2B cAA AGA|
DGA BAB d2B BAB|ABA DFA G3 G3 :|
